!!!SOCIAL_FUNCTION:	songs to insure success
!!!PDT:	1909
!!!OTL: No_71_(a).krn
!!!REG: Great_Lakes
!!!LANG: Non-Tone
!!!LING_GROUP: Algonquin
**kern
*staff1
=1-
*clefF4
*k[b-e-]
*M4/4
8f\L
8f\J
4..f\
16f\LK
8e-\
8c\J
=2
8c\L
8c\J
4..c\
16c\LK
8B-\
8A-\J
=3
8B-\L
8B-\J
4..B-\
16c\LK
8c\
8B-\J
=4
8B-\L
8B-\J
4..B-\
16B-\LK
8G\
8F\J
=5
8F\L
8F\J
4..F\
16F\LK
8F\
8D\J
=6
8F\L
8F\J
4..F\
16G\LK
8G\
8F\J
=7
8F\L
8F\J
4..F\
16F\LK
8F\
8F\J
=8
8c\L
8c\J
4..d\
16d\LK
8c\
8B-\J
=9
8c\L
8c\J
4..c\
16c\LK
8B-\
8A\J
=10
8B-\L
8B-\J
4..B-\
16c\LK
8c\
8B-\J
=11
8B-\L
8B-\J
4..B-\
16B-\LK
8G\
8F\J
=12
8F\L
8F\J
4..F\
16F\LK
8F\
8D\J
=13
8F\L
8F\J
4..F\
16G\LK
8G\
8F\J
=14
8F\L
8F\J
4..F\
16F\LK
8F\
8F\J
==
*-
